d1
  $ interlace
  (iter 16 $ sound "bd:5 ~ [~ cp/2]  sn:3" |+| delaytime "0.1 0.3" |+| room "0.3 0.5" )
  (foldEvery [3,9,18] (0.27<~) $sound "[bass2:2(3,8),bd:4 ~ bd:4 ~, ~ ~ cp ~ ]" |+|delaytime "0.5" |+| pan (sine1*0.5) )
  # delayfeedback "0.10"
  # delay "0.3"

hush

--gap and chop

d1
  -- $ foldEvery [2,3,6] (#speed "<4 3 2>")
  $ jux (stut' 4 0.7 (# vowel "a"))
  $ interlace (foldEvery[9,20,5] (|+|pan "[0(2,7),1(3,8)]").(striate' 4 0.8).("0.13 0.16 0.20" <~)$ gap 16 $ sound "app:1" |+|pan (sine1*0.5))
  (foldEvery[3,4,5] ("<0.3 0.26>" <~).(iter 3) $gap 7 $ sound "app:2"|+|pan (sine1*0.2))
   #cut "1"


d1 $ iter 3 $ rev
   $ whenmod 5 3 (|+| speed "0.3 0.2") $ whenmod 5 2 (|+| delaytime "[0.2 0.23 0.24]")
   $ whenmod 5 2 (|+| pan "[1 0 1]!")
   $ weave 32 (pan $ (2*) <$> (slow 2) sine1)
     [sound "cs:3 cs:5*2 ~"
     ,sound "[[tcl:4*4? ~ tcl:5?]/3 tcl:2?] "
     # speed ((1.2*) <$> (slow 4) sine1)
     # gain ((0.5*) <$> (slow 2) sine1)
     ]
   # speed "[0.2 0.3 0.4]/3"
   # delay "<0.1 0.3 -0.2>"
   # delaytime "0.3 0.4 0.1"
   # delayfeedback "0.5"
   |+| gain 0.7

cps(100/60/1)

d1 $ smash 15 [5,3,4,2] $spread ($)[fast 8,striate "<2 3 1 >",rev, (#speed (slow 3 $ sine*2))
    ]
   $ whenmod 5 3 (#pan"<1 0 0 1>") $ sound "sr*4"

hush

bps(130/120)

d1 $ spread ($) [fast 4,(#speed (slow 2 $ sine*5)), rev, slow "<2 8 7>", striate "<4>", (#speed (fast 3 $ sine*2))]
   $ sound "[bd*2 [~ bd]] [sn future]*2 cp jvbass*4"

hush

d1 $ every 3 (0.314 <~) $ sound "[cs:3 cs:2 cs:1 cs:4] cs:5 cs:6 cs:7 cs:8" |+| gain "0.8 "
d2 $ sound "808:1 808:5 808:3 808:5 808:3 808:3 808:4" # gain "1 0.8 0.5 "
d2 $ sound "808:2" |+| vowel "a"

d3 $ every 4 (0.2 <~) $ sound "bd:1 [sd hh cp:2 mt odx bd:1] arpy bass feel:2" # gain "1 0.8 0.2"
d4 silence
hush

d1 $(0 <~) $ sound "808:1(4,7)"
d3 $ sound "808:5*3" |+| vowel "e"
d3 $ sound "[808:2*2] 808:2*4" |+| vowel "a"
d4 $ sound "[bd*3 [sd [mt] hh hh:3]] [bd*2 [cp [cp sd] sd:1] sd]"
d1 $ (0.3 <~) $ sound "bd*2 cp*2 hh sn"


DELAYEXP
d1 $ (0.25 <~) $ slow 6 $ rev $ trunc 0.8 $ (striate' 16 0.15 $ sound "[[cs:2]*3.5 cs:4 cs:4*3]/5]")
 |+| delay  "[0.6 [[0.07 0.13 1.4]/2.5]]"
 |+| delaytime "[[[0.9 0.7 0.03 0.01]/4] 0.3 0.5 [0.77 0.88]*3,[3 5 [4 3.5] 3]/5]"
 |+| delayfeedback"0.7"
 |+| shape "0.7"
hush

TUTOR12

let inverse 1 = 0
    inverse 0 = 1
do
  let pat = "[1 1 0 1]"
  d1 $ gain "[1 0 1 1 0 1]" # sound "bd:6"
  d2 $ gain (inverse <$> pat) # sound"808:2"

real compose


d1 $ sound "[bd [bd*3 sn:2]? ~ bd sn]"
hush
cps (120/60/3)
d1 $ every 3 (0.314 <~) $ sound "[808:3 808:2 808:1 808:4] 808:5 808:6 808:7 808:8"
d4 $ degradeBy 0.25 $ every 4 (0.2 <~) $ sound "bd:1 [sd hh cp:2 mt odx:2 bd:1] arpy bass feel:2" # gain "1 0.8 0.2" # speed (scale 1.1 1 $ rand)
d3 $ every 4 (0.2 <~) $ sound "bd:1 [sd hh cp:2 mt odx:2 bd:1] arpy bass feel:2" # gain "1 0.8 0.5"
d3 $ every 4 (0.2 <~) $ sound "bd:1 [sd hh cp:2 mt odx:3 bd:1] arpy bass feel:2" # gain "1 0.3 0.5 0.8 0.2"
d3 $ every 4 (0.2 <~) $ sound "bd:1 [sd hh cp:2 mt odx:2 bd:1] arpy bass feel:2" # gain (scale 0.25 1 $ rand)

d3 $ every 4 (0.2 <~) $ sound "bd:1 [sd hh cp:2 mt odx:3 bd:1] arpy bass feel:2" # gain "1 0.3 0.5 0.8 0.2"
d5 $ every 3 (0.314 <~) $ s "arpy*5 " # n (irand 3) # speed (scale 0.80 1 $ rand)
d8 $ every 4 (0.314 <~) $ s "arpy*1 arpy*1 arpy*3 arpy*1 [arpy*1 arpy*6? arpy*8?]?" # n (irand 5)
hush

d2 $  "[0 0.25]/4" <~ (sound "bd*2 cp*2 hh sn")
d3 silence
hush
cps(120/60/2)
d3 $ every 4 (0.2 <~) $ sound "[808:4!]!!"
d1 $ slow 1.5 $(spread' (striate' 16)  "[[0.01! 0.2 0.03 0.05!]*4/3]"  $ sound "{tn}" ) |+| speed "1.06"
d1 silence
d3 $ slow 2.5 $(spread' (striate' 10)  "[0.21! ~ ~ 0.028 0.03 ~]*6/3"  $ sound "{tn}" ) |+| speed "1.06 1.06"
d3 silence

hush
cps(1)
d1 $ every 4 (0.25 ~>) $ sound "cs:6*3 cs:7 cs:8" # gain 0.6 # speed 1.2
d1 $ every 2 (0.5 ~>) $ slow 5 $ striate' 8 0.16 $ sound "[cs:4*3 ,[cs:4 cs:2](3,12)]" # gain "[ 1 0.6 0.5(12,13)]" # pan "[ 0 0 1 1 0 1]"

d1 $ every 2 (|+| speed "0.5 -1.7") $ spread' ( striate' 16) "[0.386 0.4 [0.17 1.2]]/5"  $ every 4 (0.75 <~) $ every 12 (rev) $
   sound "[cs:3 ,[cs:8 cs:1]] cs:3*2"
   # speed "[0.2 1.3 0.75 -1.5]/6"
   # pan"{1(4,15),0(5,12)}"

d3 $ (0.5 ~>) $ sound "tn:4*3(4,7)" # gain 0.5 # speed 1.1
d3 $ every 6(|+| gain "-1") $ every 4.5 (0.5 ~>) $ sound "tn:4*3(4,7)" # gain "0.5 0.6 0.7 0.8" # speed 1.1

d2 silence
d1 silence


hush
let up = speed . ((1.059466**) <$>)

cps(1)

d1 $ within (0.2,0.6) (fast "<4/3 4 2>") $ every 3 (|+| pan "<0 1 1>")
   $ every 2 (|+| speed "0.3 0.2")
   $ (spread' (striate' 10)  "[0.1 0.1 0.145 0.02]"
   $ sound "cs:6 cs:2 cs:2 cs:3")
   # (gain "{[0.2 0.6 0.4], 0.5 0.7 } " )
   # speed "0.3 0.6 "





cps(130/60/2)


d1 $ within (0.2,0.5) (slow "<4/3 4 2>") $ every 3 (|+| pan "<0 1 0 1>")
   $ every 4 (|+| speed "0.3 0.2")
   $ (spread' (striate' 16)  "[0.1 0.1 0.145 0.02]"
   $ sound "cs:6 cs:2 cs:2 cs:3")
   # (gain "{[0.2 0.6 0.4], 0.5 0.7 } " )
   # speed "0.3 0.6"

hush


d1 $ within (0.2,0.6) (slow "<4/3 4 2>") $ every 3 (|+| pan "<0 1 1>")
   $ every 2 (|+| speed "0.3 0.2")
   $ (spread' (striate' 10)  "[0.1 0.1 0.145 0.02]"
   $ sound "cs:6 cs:2 cs:2 cs:3")
   # (gain "{[0.2 0.6 0.4], 0.5 0.7 } " )
   # speed "0.3 0.6 "

hush

d1 $ within (0.2,0.6) (slow "<4/3 4 2>") $ every 3 (|+| pan "<0 1 1>")
   $ every 2 (|+| speed "0.3 0.2")
   $ (spread' (striate' 10)  "[0.1 0.1 0.145 0.02]"
   $ sound "cs:6 cs:2 cs:2 cs:3")
   # (gain "{[0.2 0.6 0.4], 0.5 0.7 } " )
   # speed "0.3 0.6 "


d2 $ slow 1.5 $ rev  $ (spread' (striate' 10)  "[0.01! 0.2 0.43 0.05!]*4/7"  $ sound "{app:1}" ) # gain 0.8 # speed 0.9
d2 $ slow 1.5 $ rev  $ (spread' (striate' 10)  "[0.01! 0.2 0.43 0.05!]*4/7"  $ sound "{cs:6}" ) # gain 0.8 # speed 0.9
d2 silence

|+| lp "0.3"
|+| delay  "[0.6 [[0.07 0.13 1.4]/2.5]]"
|+| delaytime "[[[0.9 0.7 0.03 0.01]/4] 0.3 0.5 [0.77 0.88]*3,[3 5 [4 3.5] 3]/5]"
|+| delayfeedback"0.7"
|+| shape "0.4"

d4 $ sound "808:1(7,14)" #gain "0.6 0.8"
d4$ sound "808:1(11,24)"

  |+| speed "[1 0.65 0.66 0.7 3 1.5]/3"
|+| fil "0.3"
 --|+| speed "[[1 0.75 0.66 0.8 3 1.5]/3, [~ 1.2 ~]/2] [0.6 1.2 1.3 1.4 2]]"
 |+| vowel "a"
d2  $ slow 1.3 $ trunc 0.6 $ rev $( spread' (striate' 16)  "[0.41! 0.2!! 0.043 0.05!]*3/7"  $ sound "tn" )
hush
 |+| speed "[0.4 1]*3/2"
|+| vowel "a"
 |+| speed "[[1 0.75 0.66 0.8 3 1.5]/3, [~ 1.2 ~]/2] [0.6 1.2 1.3 1.4 2]]"

hush
d1  $ slow 8 $ trunc 0.8 $ rev $( spread' (striate' 23)  "[[0.03 0.01? 0.01 0.015]/4 ,[0.019 0.025(2,3)]]"  $ sound "[tn, 808:5]" )
  |+| speed "[[1 0.75 0.66 0.8 3 1.5]/3, [~ 1.2 ~]/2] [0.6 1.2 1.3 1.4 2]]"
d2 $ slow 4 $ striate' 8 0.2 $ sound "[cts:2! cts:1]/3" #speed 1
 |+| vowel "a"

d2 silence

 d1 $ slow 3 $ linger "<0.4 0.6 0.8>" $ striate' 16  0.05  $ stack [ sound "cts:2",sound "cts:1"]

 d1 $ linger "<0.25 0.5 1 0.25>" $ brak $ loopAt "<0.25 1.3 1 0.5>" $ chop 16 $ sound "breaks125"


  |+| speed "[[1 0.9 0.5 0.8 3 1.5], [~ 0.25 ~]/2] [0.3 2 3 8 9 8 3]"
hush
