d3
$ degradeBy 0.2
$ plyWith 25 ((+ n 1).(|* gain 0.95).(* speed (-1)).(( range 0.5 3 $ slow 20 $ rand) ~>))
$ s "l3"
-- + n (segment 5 $ irand 10)
-- |+ up (segment 13 $ (arp "up" "c'maj'5"))
# nl
-- # cut 1
# release 0.7
# gain 1.2


d3 silence

hush


d1
$ degradeBy 0.3
$ plyWith 5 ((|* gain 0.97).(* speed (-1)).((range 0.4 3 $ slow 200 $ saw) ~>).(# up (arp "up down" "c'maj'2")))
$ s "mp03"
+ n (segment "<4 7 10 11 12 13 15>" $ irand 10)
-- # n 4

hush