do
    let a = segment b $ choose [0.2, 0.3 .. 0.8]
        b = 1
        c = 36
    p " freeze " 
        $ superimpose ((0.01~>).(# begin (osc 11 c  ( 0.2 + a ) (0 + a ) saw )).(# pan 1))
        $ s "han:2"
        + begin (osc 10 c (0 + a) (0.2 + a ) saw )
        -- # speed (osc 20 c 1.4 1 (perlin + 0.3) )
        # release (range 0.8 0.5 $ shrand 6)
        # hold 2.5
        # attack (range 0.1 0.01 $ shrand 4)
        # pan (range 0.3 0.7 $ shrand 10)
        -- # lpf 4000 

        hush
